X:10
T:Welcome from Hanover
M:2/4
L:1/8
B:Thompson's Compleat Collection of 200 Favourite Country Dances, vol. 1 (London, 1757)
Z:Transcribed and edited by Fynnian Titford-Mock, 2007
Z:abc's:AK/Fiddler's Companion
K:G
G(dd)c|B(BB)A|G(gg)f|"tr"e2 d2|c(ee)d/c/)|B(dd)A/G/|F2 G2|A/G/F/E/ D/C/B,/A,/|
G,(dd)c|B(BB)A|G(gg)f|"tr"e2 d2|c(ee)d/c/|dFGc|BA"tr"GF|"tr"G2G2:|
|:B(ee)d|^cA"tr"AG|Fd"tr"d=c|BG"tr"GF|E(c"tr"c)B|A(FF)G|F2 "tr"G2|A/G/F/E/ D/C/B,/A,/|
G,(dd)c|B(BB)A|G(gg)f|"tr"e2d2|c(ee)d/c/|dFGc|BAGF|"tr"G/F/G "tr"G/F/G:|

